public/logos/3O.svg

<?xml version="1.0" encoding="UTF-8"?>
<svg xmlns="http://www.w3.org/2000/svg" xmlns:xlink="http://www.w3.org/1999/xlink" width="176pt" height="28.12pt" viewBox="0 0 176 28.12" version="1.1">
<g id="surface1">
<path style=" stroke:none;fill-rule:nonzero;fill:rgb(92.880249%,8.433533%,26.173401%);fill-opacity:1;" d="M 53.710938 11.882812 C 54.269531 10.523438 54.792969 9.253906 55.273438 8.070312 C 55.289062 8.027344 55.308594 7.984375 55.328125 7.941406 C 54.78125 7.65625 53.992188 7.410156 52.863281 7.226562 C 52.214844 7.125 51.53125 7.074219 50.808594 7.074219 C 49.621094 7.074219 48.523438 7.183594 47.519531 7.402344 C 46.511719 7.625 45.628906 7.867188 44.867188 8.140625 C 44.105469 8.410156 43.492188 8.675781 43.027344 8.933594 C 42.5625 9.191406 42.277344 9.359375 42.175781 9.4375 L 42.175781 27.578125 L 47.597656 27.578125 L 47.597656 12.417969 C 47.828125 12.289062 48.238281 12.117188 48.835938 11.894531 C 49.429688 11.675781 50.269531 11.566406 51.351562 11.566406 C 51.714844 11.566406 52.09375 11.59375 52.496094 11.644531 C 52.894531 11.695312 53.214844 11.738281 53.617188 11.855469 C 53.652344 11.867188 53.679688 11.875 53.710938 11.882812 M 24.878906 17.441406 C 24.230469 15.75 23.582031 14.113281 22.929688 12.539062 C 22.28125 10.964844 21.6875 9.511719 21.140625 8.171875 C 20.59375 6.832031 20.101562 5.660156 19.660156 4.664062 C 19.21875 3.664062 18.871094 2.894531 18.609375 2.34375 C 18.039062 1.058594 17.789062 0.484375 17.789062 0.484375 L 10.863281 0.484375 C 10.863281 0.484375 10.613281 1.058594 10.042969 2.34375 C 9.785156 2.894531 9.433594 3.664062 8.992188 4.664062 C 8.550781 5.660156 8.058594 6.832031 7.511719 8.171875 C 6.96875 9.511719 6.371094 10.964844 5.722656 12.539062 C 5.074219 14.113281 4.421875 15.75 3.773438 17.441406 C 3.125 19.140625 2.476562 20.847656 1.828125 22.574219 C 1.179688 24.296875 0.566406 25.964844 0 27.578125 L 5.722656 27.578125 L 7.941406 21.585938 L 20.710938 21.585938 L 22.929688 27.578125 L 28.65625 27.578125 C 28.085938 25.964844 27.472656 24.296875 26.824219 22.574219 C 26.175781 20.847656 25.527344 19.140625 24.878906 17.441406 M 9.847656 16.5 C 10.316406 15.242188 10.789062 13.976562 11.269531 12.707031 C 11.75 11.433594 12.191406 10.265625 12.59375 9.199219 C 12.996094 8.128906 13.355469 7.214844 13.664062 6.449219 C 13.976562 5.683594 14.199219 5.164062 14.328125 4.890625 C 14.457031 5.164062 14.679688 5.683594 14.988281 6.449219 C 15.300781 7.214844 15.660156 8.128906 16.058594 9.199219 C 16.460938 10.265625 16.90625 11.433594 17.382812 12.707031 C 17.863281 13.976562 18.339844 15.242188 18.804688 16.5 Z M 31.65625 27.578125 L 37.074219 27.578125 L 37.074219 7.175781 L 31.65625 8.738281 Z M 34.34375 -0.00390625 C 33.519531 -0.00390625 32.808594 0.28125 32.214844 0.847656 C 31.621094 1.417969 31.324219 2.113281 31.324219 2.9375 C 31.324219 3.761719 31.621094 4.46875 32.214844 5.050781 C 32.808594 5.628906 33.519531 5.917969 34.34375 5.917969 C 35.195312 5.917969 35.917969 5.628906 36.511719 5.050781 C 37.105469 4.46875 37.402344 3.761719 37.402344 2.9375 C 37.402344 2.113281 37.105469 1.417969 36.511719 0.847656 C 35.917969 0.28125 35.195312 -0.00390625 34.34375 -0.00390625 M 77.710938 17.441406 C 77.058594 15.75 76.410156 14.113281 75.761719 12.539062 C 75.113281 10.964844 74.515625 9.511719 73.96875 8.171875 C 73.425781 6.832031 72.933594 5.660156 72.492188 4.664062 C 72.050781 3.664062 71.699219 2.894531 71.4375 2.34375 C 70.867188 1.058594 70.621094 0.484375 70.621094 0.484375 L 63.691406 0.484375 C 63.691406 0.484375 63.445312 1.058594 62.875 2.34375 C 62.613281 2.894531 62.261719 3.664062 61.824219 4.664062 C 61.382812 5.660156 60.886719 6.832031 60.34375 8.171875 C 59.800781 9.511719 59.199219 10.964844 58.550781 12.539062 C 57.902344 14.113281 57.253906 15.75 56.601562 17.441406 C 55.957031 19.140625 55.304688 20.847656 54.65625 22.574219 C 54.011719 24.296875 53.398438 25.964844 52.828125 27.578125 L 58.550781 27.578125 L 60.769531 21.585938 L 73.542969 21.585938 L 75.761719 27.578125 L 81.484375 27.578125 C 80.914062 25.964844 80.304688 24.296875 79.65625 22.574219 C 79.007812 20.847656 78.355469 19.140625 77.710938 17.441406 M 62.679688 16.5 C 63.144531 15.242188 63.621094 13.976562 64.101562 12.707031 C 64.578125 11.433594 65.019531 10.265625 65.421875 9.199219 C 65.828125 8.128906 66.183594 7.214844 66.496094 6.449219 C 66.804688 5.683594 67.027344 5.164062 67.15625 4.890625 C 67.289062 5.164062 67.507812 5.683594 67.820312 6.449219 C 68.132812 7.214844 68.488281 8.128906 68.890625 9.199219 C 69.292969 10.265625 69.734375 11.433594 70.214844 12.707031 C 70.695312 13.976562 71.167969 15.242188 71.632812 16.5 Z M 146.574219 27.578125 L 151.996094 27.578125 L 151.996094 7.175781 L 146.574219 8.738281 Z M 149.269531 -0.00390625 C 148.441406 -0.00390625 147.730469 0.28125 147.140625 0.847656 C 146.546875 1.417969 146.246094 2.113281 146.246094 2.9375 C 146.246094 3.761719 146.546875 4.46875 147.140625 5.050781 C 147.730469 5.628906 148.441406 5.917969 149.269531 5.917969 C 150.117188 5.917969 150.84375 5.628906 151.433594 5.050781 C 152.027344 4.46875 152.324219 3.761719 152.324219 2.9375 C 152.324219 2.113281 152.027344 1.417969 151.433594 0.847656 C 150.84375 0.28125 150.117188 -0.00390625 149.269531 -0.00390625 M 175.148438 8.703125 C 174.710938 8.484375 174.113281 8.265625 173.367188 8.046875 C 172.617188 7.824219 171.703125 7.625 170.617188 7.445312 C 169.53125 7.265625 168.292969 7.175781 166.898438 7.175781 C 165.171875 7.175781 163.621094 7.4375 162.253906 7.964844 C 160.882812 8.496094 159.71875 9.238281 158.75 10.195312 C 157.78125 11.148438 157.039062 12.304688 156.523438 13.660156 C 156.007812 15.015625 155.75 16.699219 155.75 18.324219 C 155.75 19.925781 155.992188 21.339844 156.484375 22.5625 C 156.976562 23.792969 157.632812 24.816406 158.460938 25.644531 C 159.285156 26.46875 160.253906 27.089844 161.363281 27.5 C 162.472656 27.914062 163.648438 28.121094 164.886719 28.121094 C 165.765625 28.121094 166.546875 28.011719 167.230469 27.789062 C 167.910156 27.574219 168.492188 27.320312 168.972656 27.035156 C 169.449219 26.753906 169.824219 26.476562 170.097656 26.203125 C 170.363281 25.933594 170.527344 25.757812 170.578125 25.679688 L 170.578125 27.578125 L 176 27.578125 L 176 9.148438 C 175.871094 9.070312 175.585938 8.921875 175.148438 8.703125 M 170.578125 18.597656 C 170.578125 20.070312 170.203125 21.292969 169.457031 22.273438 C 168.707031 23.253906 167.585938 23.746094 166.085938 23.746094 C 164.589844 23.746094 163.421875 23.199219 162.582031 22.101562 C 161.746094 21.003906 161.324219 19.550781 161.324219 17.746094 C 161.324219 16.839844 161.445312 15.890625 161.691406 15.132812 C 161.9375 14.371094 162.3125 13.707031 162.816406 13.140625 C 163.320312 12.570312 163.964844 12.132812 164.75 11.820312 C 165.539062 11.511719 166.472656 11.355469 167.5625 11.355469 C 168.382812 11.355469 169.058594 11.394531 169.574219 11.472656 C 170.089844 11.550781 170.425781 11.628906 170.578125 11.703125 Z M 97.257812 7.941406 C 96.710938 7.65625 95.921875 7.410156 94.792969 7.226562 C 94.148438 7.125 93.460938 7.074219 92.738281 7.074219 C 91.550781 7.074219 90.457031 7.183594 89.449219 7.402344 C 88.441406 7.625 87.558594 7.867188 86.796875 8.140625 C 86.035156 8.410156 85.421875 8.675781 84.957031 8.933594 C 84.492188 9.191406 84.207031 9.359375 84.105469 9.4375 L 84.105469 27.578125 L 89.527344 27.578125 L 89.527344 12.417969 C 89.761719 12.289062 90.171875 12.117188 90.765625 11.894531 C 91.359375 11.675781 92.199219 11.566406 93.28125 11.566406 C 93.644531 11.566406 94.027344 11.59375 94.425781 11.644531 C 94.824219 11.695312 95.144531 11.738281 95.546875 11.855469 C 95.582031 11.867188 95.609375 11.875 95.640625 11.882812 C 96.203125 10.523438 96.722656 9.253906 97.203125 8.070312 C 97.21875 8.027344 97.238281 7.984375 97.257812 7.941406 M 114.9375 8.046875 C 114.191406 7.824219 113.273438 7.625 112.191406 7.445312 C 111.105469 7.265625 109.867188 7.175781 108.472656 7.175781 C 106.742188 7.175781 105.195312 7.4375 103.828125 7.964844 C 102.457031 8.496094 101.289062 9.238281 100.320312 10.195312 C 99.355469 11.148438 98.613281 12.304688 98.09375 13.660156 C 97.582031 15.015625 97.320312 16.699219 97.320312 18.324219 C 97.320312 19.925781 97.566406 21.339844 98.058594 22.5625 C 98.546875 23.792969 99.203125 24.816406 100.03125 25.644531 C 100.859375 26.46875 101.824219 27.089844 102.9375 27.5 C 104.046875 27.914062 105.222656 28.121094 106.460938 28.121094 C 107.335938 28.121094 108.117188 28.011719 108.804688 27.789062 C 109.484375 27.574219 110.066406 27.320312 110.546875 27.035156 C 111.019531 26.753906 111.394531 26.476562 111.667969 26.203125 C 111.9375 25.933594 112.097656 25.757812 112.148438 25.679688 L 112.148438 27.578125 L 117.570312 27.578125 L 117.570312 9.148438 C 117.441406 9.070312 117.160156 8.921875 116.71875 8.703125 C 116.28125 8.484375 115.6875 8.265625 114.9375 8.046875 M 112.148438 18.597656 C 112.148438 20.070312 111.773438 21.292969 111.027344 22.273438 C 110.277344 23.253906 109.15625 23.746094 107.65625 23.746094 C 106.164062 23.746094 104.992188 23.199219 104.15625 22.101562 C 103.316406 21.003906 102.894531 19.550781 102.894531 17.746094 C 102.894531 16.839844 103.019531 15.890625 103.265625 15.132812 C 103.511719 14.371094 103.882812 13.707031 104.390625 13.140625 C 104.890625 12.570312 105.535156 12.132812 106.324219 11.820312 C 107.113281 11.511719 108.046875 11.355469 109.132812 11.355469 C 109.957031 11.355469 110.628906 11.394531 111.144531 11.472656 C 111.660156 11.550781 111.996094 11.628906 112.148438 11.703125 Z M 139.910156 9.691406 C 139.070312 8.867188 138.101562 8.238281 137.007812 7.8125 C 135.910156 7.386719 134.742188 7.175781 133.503906 7.175781 C 132.597656 7.175781 131.804688 7.285156 131.121094 7.503906 C 130.4375 7.722656 129.855469 7.980469 129.378906 8.277344 C 128.902344 8.574219 128.535156 8.851562 128.277344 9.109375 C 128.019531 9.367188 127.863281 9.539062 127.8125 9.613281 L 127.8125 0.460938 L 122.390625 2.027344 L 122.390625 27.578125 C 122.546875 27.605469 122.847656 27.648438 123.300781 27.714844 C 123.753906 27.777344 124.3125 27.835938 124.984375 27.890625 C 125.65625 27.941406 126.414062 27.992188 127.269531 28.042969 C 128.121094 28.09375 129.011719 28.121094 129.941406 28.121094 C 134.144531 28.121094 137.316406 27.144531 139.445312 25.199219 C 141.574219 23.25 142.640625 20.429688 142.640625 16.96875 C 142.640625 15.394531 142.394531 13.996094 141.902344 12.769531 C 141.414062 11.542969 140.75 10.519531 139.910156 9.691406 M 136.699219 20.164062 C 136.449219 20.925781 136.078125 21.589844 135.574219 22.15625 C 135.070312 22.726562 134.425781 23.164062 133.640625 23.476562 C 132.851562 23.785156 131.914062 23.941406 130.828125 23.941406 C 130.003906 23.941406 129.332031 23.902344 128.816406 23.824219 C 128.300781 23.746094 127.96875 23.667969 127.8125 23.589844 L 127.8125 16.699219 C 127.8125 15.226562 128.183594 14 128.933594 13.019531 C 129.683594 12.039062 130.804688 11.550781 132.300781 11.550781 C 133.800781 11.550781 134.96875 12.097656 135.808594 13.195312 C 136.644531 14.292969 137.066406 15.746094 137.066406 17.550781 C 137.066406 18.453125 136.941406 19.402344 136.699219 20.164062 "/>
</g>
</svg>

<svg xmlns="http://www.w3.org/2000/svg" width="176pt" height="37.493" viewBox="0 0 176 28.12"><path d="M53.71 11.883q.841-2.04 1.563-3.813.025-.065.055-.129c-.547-.285-1.336-.53-2.465-.714a13 13 0 0 0-2.054-.153q-1.783 0-3.29.328c-1.007.223-1.89.465-2.652.739q-1.143.406-1.84.793-.699.386-.851.504v18.14h5.422v-15.16c.23-.129.64-.3 1.238-.523q.892-.33 2.516-.329.543.001 1.144.079c.399.05.719.093 1.121.21.035.012.063.02.094.028M24.879 17.44a198 198 0 0 0-1.95-4.902c-.648-1.574-1.241-3.027-1.788-4.367S20.1 5.66 19.66 4.664c-.442-1-.79-1.77-1.052-2.32-.57-1.285-.82-1.86-.82-1.86h-6.926s-.25.575-.82 1.86c-.258.55-.61 1.32-1.05 2.32-.442.996-.934 2.168-1.481 3.508-.543 1.34-1.14 2.793-1.79 4.367-.648 1.574-1.3 3.211-1.949 4.902-.648 1.7-1.296 3.407-1.945 5.133A239 239 0 0 0 0 27.578h5.723l2.218-5.992h12.77l2.219 5.992h5.726a265 265 0 0 0-1.832-5.004c-.648-1.726-1.297-3.433-1.945-5.133M9.848 16.5q.701-1.888 1.422-3.793l1.324-3.508c.402-1.07.761-1.984 1.07-2.75q.47-1.148.664-1.558c.129.273.352.793.66 1.558a95 95 0 0 1 1.07 2.75c.403 1.067.848 2.235 1.325 3.508.48 1.27.957 2.535 1.422 3.793Zm21.808 11.078h5.418V7.176l-5.418 1.562ZM34.344-.004a2.98 2.98 0 0 0-2.13.852 2.79 2.79 0 0 0-.89 2.09q0 1.237.89 2.113a2.95 2.95 0 0 0 2.13.867q1.277 0 2.168-.867c.593-.582.89-1.29.89-2.113q0-1.236-.89-2.09-.891-.851-2.168-.852M77.71 17.441c-.652-1.691-1.3-3.328-1.95-4.902-.648-1.574-1.245-3.027-1.792-4.367a121 121 0 0 0-1.477-3.508c-.441-1-.793-1.77-1.055-2.32-.57-1.285-.816-1.86-.816-1.86h-6.93s-.246.575-.816 1.86a84 84 0 0 0-1.05 2.32 120 120 0 0 0-1.481 3.508c-.543 1.34-1.145 2.793-1.793 4.367a234 234 0 0 0-1.95 4.902c-.644 1.7-1.296 3.407-1.945 5.133a294 294 0 0 0-1.828 5.004h5.723l2.219-5.992h12.773l2.219 5.992h5.722q-.856-2.42-1.828-5.004c-.648-1.726-1.3-3.433-1.945-5.133M62.68 16.5q.699-1.888 1.422-3.793.716-1.908 1.32-3.508c.406-1.07.762-1.984 1.074-2.75q.465-1.148.66-1.558.198.41.664 1.558.468 1.147 1.07 2.75l1.325 3.508q.72 1.906 1.418 3.793Zm83.894 11.078h5.422V7.176l-5.422 1.562ZM149.27-.004q-1.244 0-2.13.852a2.79 2.79 0 0 0-.894 2.09q.001 1.237.895 2.113.885.867 2.129.867c.847 0 1.574-.29 2.164-.867.593-.582.89-1.29.89-2.113q0-1.236-.89-2.09c-.59-.567-1.317-.852-2.164-.852m25.878 8.707c-.437-.219-1.035-.437-1.78-.656q-1.124-.333-2.75-.602-1.629-.27-3.72-.27c-1.726 0-3.277.263-4.644.79-1.371.531-2.535 1.273-3.504 2.23q-1.452 1.431-2.227 3.465c-.515 1.356-.773 3.04-.773 4.664 0 1.602.242 3.016.734 4.238.493 1.231 1.149 2.254 1.977 3.083a8 8 0 0 0 2.902 1.855 10 10 0 0 0 3.524.621q1.319 0 2.343-.332a8.4 8.4 0 0 0 1.743-.754q.714-.421 1.125-.832c.265-.27.43-.445.48-.523v1.898H176V9.148a16 16 0 0 0-.852-.445m-4.57 9.895q-.001 2.206-1.121 3.675c-.75.98-1.871 1.473-3.371 1.473q-2.244 0-3.504-1.644-1.256-1.648-1.258-4.356c0-.906.121-1.855.367-2.613a5.5 5.5 0 0 1 1.125-1.992q.756-.854 1.934-1.32c.79-.31 1.723-.466 2.813-.466.82 0 1.496.04 2.011.118q.775.118 1.004.23ZM97.258 7.94c-.547-.285-1.336-.53-2.465-.714a13 13 0 0 0-2.055-.153q-1.779 0-3.289.328c-1.008.223-1.89.465-2.652.739q-1.143.406-1.84.793-.698.386-.852.504v18.14h5.422v-15.16c.235-.129.645-.3 1.239-.523q.89-.33 2.515-.329.546.001 1.145.079c.398.05.719.093 1.12.21.036.012.063.02.095.028q.842-2.04 1.562-3.813.025-.065.055-.129m17.68.106q-1.122-.333-2.747-.602-1.628-.27-3.718-.27-2.595 0-4.645.79-2.056.795-3.508 2.23-1.448 1.431-2.226 3.465c-.512 1.356-.774 3.04-.774 4.664q0 2.404.739 4.238c.488 1.231 1.144 2.254 1.972 3.083a8 8 0 0 0 2.906 1.855 10 10 0 0 0 3.524.621q1.312 0 2.344-.332a8.4 8.4 0 0 0 1.742-.754q.71-.421 1.121-.832.405-.406.48-.523v1.898h5.422V9.148c-.129-.078-.41-.226-.851-.445q-.657-.328-1.781-.656m-2.79 10.55q-.001 2.208-1.12 3.676-1.124 1.471-3.372 1.473c-1.492 0-2.664-.547-3.5-1.644q-1.26-1.648-1.261-4.356c0-.906.125-1.855.37-2.613a5.45 5.45 0 0 1 1.126-1.992q.75-.854 1.933-1.32c.79-.31 1.723-.466 2.809-.466q1.237 0 2.012.118t1.003.23Zm27.762-8.906a8.5 8.5 0 0 0-2.902-1.879 9.6 9.6 0 0 0-3.504-.636q-1.359 0-2.383.328-1.027.328-1.742.773-.715.446-1.102.832c-.257.258-.414.43-.464.504V.461l-5.422 1.566v25.551q.232.039.91.137c.453.062 1.011.12 1.683.176.672.05 1.43.101 2.286.152q1.277.076 2.671.078c4.204 0 7.375-.976 9.504-2.922 2.13-1.949 3.196-4.77 3.196-8.23q0-2.36-.739-4.2-.732-1.837-1.992-3.078m-3.21 10.473a5.6 5.6 0 0 1-1.126 1.992q-.756.854-1.933 1.32-1.185.465-2.813.465-1.237 0-2.012-.117c-.515-.078-.847-.156-1.004-.234V16.7q-.001-2.21 1.122-3.68t3.367-1.47q2.249 0 3.508 1.645 1.256 1.648 1.257 4.356c0 .902-.125 1.851-.367 2.613" style="stroke:none;fill-rule:nonzero;fill:#ed1643;fill-opacity:1"/></svg>
